X:5
T:A Nakht in Gan Eydn
Z:Jack Campin, http://www.campin.me.uk
F:http://www.campin.me.uk/Music/EdinburghKlezmer.abc
M:2/4
L:1/8
Q:1/4=115
K:Dm
|:A,DE| F2 ED|F2 ED   | EF D2|z    CFG| A2  GF|   A2     GF |   GA F2| z
  CFA | c2 B2|A2 GF   | FG FE|D3     C| F G2 F| (3AGF  (3FED|[1 D4   | z   :|\
                                                             [2 D4-  | D2 z||
|:   A| Ad dd|dA f/e/d|^cd BA|G3     G|^FG  AB|  ^cd     cB |   A4-  | A2 C2|
        CF FA|cc BA   | dG GG|GA/G/ FE| D2  AF|[1 GG     FG |   A4   |Td3  :|\
                                               [2 GG     FE |   D4   | z   ||
|:ABA |Td4   | z  AFE | D4   |z    ABA| f4-   | (3fed (3^cde|   d4   | z
  c=Bc| d_edc|=Bc_BA  |=Bc_BA|G3     F| F G2 F| (3AGF  (3FED|   D4-  | D   :|
